X:1
T:Colporteur, 11.11.11.11.11.11
T:Ernest Orlando Sellers, 1907
T:Colporteur, 11.11.11.11.11.11
T:Public Domain, 
C:Ernest Orlando Sellers, 1907
Z:Public Domain,
%%score ( 1 2 ) ( 3 4 )
L:1/8
M:4/4
K:Eb
V:1 treble 
V:2 treble 
V:3 bass 
V:4 bass 
V:1
 E2 [EG]2 [EG]2 [GB]2 | [Gc]4 [GB]4 | [Ad]2 [Ad]2 [Ac]2 [AB]2 | [Ge]6 z2 | %4
 [Ae]2 [Ac]2 [EA]2 [Ec]2 | [EB]4 [EG]4 | [EG]2 [EG]2 [EF]2 [Ec]2 | [DB]6 z2 | %8
 [DF]2 [EG]2 [FA]2 [Ac]2 | [GB]4 [Ge]4 | [Ac]2 [Ae]2 [Ed]2 [Ec]2 | [EB]6 z2 | E3 F G2 A2 | %13
 (B2 F2) [Ee]4 | [EF]2 [FA]2 [EG]2 [DF]2 | E6 z2 | [GB]2 [GB]2 [Gc]2 [Gc]2 | [GB]4 [EG]4 | %18
 [CE]2 [CE]2 [DF]2 [DB]2 | [EB]8 | [Ad]2 [Ad]2 [Ac]2 [AB]2 | [Ge]4 [EG]4 | %22
 [EF]2 [FA]2 [EG]2 [DF]2 | E8 |] %24
V:2
 E2 x6 | x8 | x8 | x8 | x8 | x8 | x8 | x8 | x8 | x8 | x8 | x8 | E3 F G2 A2 | B4 x4 | x8 | E6 x2 | %16
 x8 | x8 | x8 | x8 | x8 | x8 | x8 | E8 |] %24
V:3
 [E,G,]2 [E,B,]2 [E,B,]2 [E,E]2 | [E,E]4 [E,E]4 | [F,B,]2 [D,B,]2 [B,,B,]2 [D,B,]2 | [E,B,]6 z2 | %4
 [A,C]2 [A,E]2 [A,C]2 A,2 | [E,G,]4 [E,B,]4 | [C,C]2 [C,B,]2 [F,=A,]2 [F,A,]2 | [B,,B,]6 z2 | %8
 [B,,B,]2 [B,,B,]2 [B,,B,]2 [B,,B,]2 | [E,B,]4 [E,B,]4 | A,2 [A,C]2 [A,B,]2 A,2 | [E,G,]6 z2 | %12
 E,3 F, G,2 A,2 | (B,2 A,2) [G,B,]4 | [A,C]2 [F,C]2 B,2 (B,A,) | [E,G,]6 z2 | %16
 [E,E]2 [E,E]2 [E,E]2 [E,E]2 | [E,E]4 [E,B,]4 | [E,G,]2 [E,G,]2 [B,,A,]2 [B,,F,]2 | [E,G,]8 | %20
 [B,,B,]2 [B,,B,]2 [B,,B,]2 [D,B,]2 | [E,B,]4 [E,E]4 | [A,C]2 [F,C]2 B,2 (B,A,) | [E,G,]8 |] %24
V:4
 x8 | x8 | x8 | x8 | x6 A,2 | x8 | x8 | x8 | x8 | x8 | A,2 x2 A,2 x2 | x8 | E,3 F, G,2 A,2 | %13
 B,4 x4 | x4 B,2 B,,2 | x8 | x8 | x8 | x8 | x8 | x8 | x8 | x4 B,2 B,,2 | x8 |] %24

